svgs/nagram.svg

<svg width="192" height="192" viewBox="0 0 192 192" fill="none" xmlns="http://www.w3.org/2000/svg">
<path d="M52.0906 22H46.7573C35.7116 22 26.7573 30.9543 26.7573 42V150C26.7573 161.046 35.7116 170 46.7573 170H52.0906C63.1363 170 72.0906 161.046 72.0906 150V42C72.0906 30.9543 63.1363 22 52.0906 22Z" stroke="black" stroke-width="12" stroke-linecap="round" stroke-linejoin="round"/>
<path d="M145.424 22H141.424C130.378 22 121.424 30.9543 121.424 42V150C121.424 161.046 130.378 170 141.424 170H145.424C156.47 170 165.424 161.046 165.424 150V42C165.424 30.9543 156.47 22 145.424 22Z" stroke="black" stroke-width="12" stroke-linecap="round" stroke-linejoin="round"/>
<path d="M66.5 28L119.134 86M125.5 162.5L74.4719 105.5" stroke="black" stroke-width="12" stroke-linecap="round" stroke-linejoin="round"/>
</svg>

<svg width="192" height="192" viewBox="0 0 192 192" fill="none" xmlns="http://www.w3.org/2000/svg"><path d="M52.09 22h-5.333c-11.045 0-20 8.954-20 20v108c0 11.046 8.955 20 20 20h5.334c11.045 0 20-8.954 20-20V42c0-11.046-8.955-20-20-20ZM145.424 22h-4c-11.046 0-20 8.954-20 20v108c0 11.046 8.954 20 20 20h4c11.046 0 20-8.954 20-20V42c0-11.046-8.954-20-20-20ZM66.5 28l52.634 58m6.366 76.5-51.028-57" stroke="#000" stroke-width="12" stroke-linecap="round" stroke-linejoin="round"/></svg>
